exported-svg/box.svg

<svg height="24" viewBox="0 0 24 24" width="24" xmlns="http://www.w3.org/2000/svg"><path d="m12.5 22.1838682c.0564881-.0201988.1120585-.0438927.1663932-.0710818l8.0011069-4.0005517c.5097432-.2532975.8321979-.773292.8325-1.3422347v-9.52973468c-.0000735-.13845566-.0192078-.2739995-.0554778-.40350947l-8.9445223 4.47226115zm-1 .0035495v-10.8784007l-8.94461616-4.47230808c-.03626155.1294474-.05541299.26492201-.05551549.40329108v9.5234476c-.00386109.5702612.31586645 1.093435.82373845 1.3493388l8.0001432 4.0000716c.0574887.0287674.1163644.0536207.17625.0745597zm9.3590057-16.17593757c-.0606978-.04241504-.1250053-.08067149-.1926125-.11426653l-8-4c-.4193677-.20838718-.9134187-.20838718-1.3327864 0l-8.00110687 4.00055172c-.06723712.03341092-.13121594.07146221-.19162715.11365408l8.85912722 4.4295636zm-7.7465057-5.00924541 7.9999999 3.99999996c.8495721.42216251 1.3869966 1.28882003 1.3875001 2.23776532v9.5302653c-.0005035.94868-.537928 1.8153375-1.3863932 2.2369483l-7.9998568 3.9999284c-.7042099.3523869-1.5332901.3523869-2.2373568.0000716l-8.00138109-4.0006932c-.84874245-.4276552-1.38160219-1.2995797-1.37517883-2.2465204v-9.5202974c.00068239-.94867591.53811176-1.81531389 1.38655992-2.2369162l8.0011068-4.00055168c.7007908-.34823144 1.5242092-.34823144 2.225 0z"/></svg>

<?xml version="1.0" encoding="UTF-8"?>
<svg width="24px" height="24px" viewBox="0 0 24 24" version="1.1" xmlns="http://www.w3.org/2000/svg" xmlns:xlink="http://www.w3.org/1999/xlink">
    <!-- Generator: Sketch 55.2 (78181) - https://sketchapp.com -->
    <title>box</title>
    <desc>Created with Sketch.</desc>
    <g id="box" stroke="none" stroke-width="1" fill="none" fill-rule="evenodd">
        <path d="M12.5,22.1838682 C12.5564881,22.1636694 12.6120585,22.1399755 12.6663932,22.1127864 L20.6675001,18.1122347 C21.1772433,17.8589372 21.499698,17.3389427 21.5000001,16.77 L21.5000001,7.24026532 C21.4999266,7.10180966 21.4807923,6.96626582 21.4445223,6.83675585 L12.5,11.309017 L12.5,22.1838682 Z M11.5,22.1874177 L11.5,11.309017 L2.55538384,6.83670892 C2.51912229,6.96615632 2.49997085,7.10163093 2.49986835,7.24 L2.49986835,16.7634476 C2.49600726,17.3337088 2.8157348,17.8568826 3.3236068,18.1127864 L11.32375,22.112858 C11.3812387,22.1416254 11.4401144,22.1664787 11.5,22.1874177 Z M20.8590057,6.01148013 C20.7983079,5.96906509 20.7340004,5.93080864 20.6663932,5.8972136 L12.6663932,1.8972136 C12.2470255,1.68882642 11.7529745,1.68882642 11.3336068,1.8972136 L3.33249993,5.89776532 C3.26526281,5.93117624 3.20128399,5.96922753 3.14087278,6.0114194 L12,10.440983 L20.8590057,6.01148013 Z M13.1125,1.00223472 L21.1124999,5.00223468 C21.962072,5.42439719 22.4994965,6.29105471 22.5,7.24 L22.5,16.7702653 C22.4994965,17.7189453 21.962072,18.5856028 21.1136068,19.0072136 L13.11375,23.007142 C12.4095401,23.3595289 11.5804599,23.3595289 10.8763932,23.0072136 L2.87501211,19.0065204 C2.02626966,18.5788652 1.49340992,17.7069407 1.49983328,16.76 L1.49983328,7.2397026 C1.50051567,6.29102669 2.03794504,5.42438871 2.8863932,5.0027864 L10.8875,1.00223472 C11.5882908,0.654003279 12.4117092,0.654003279 13.1125,1.00223472 Z" id="Combined-Shape" fill="#000000" fill-rule="nonzero"></path>
    </g>
</svg>
